src/assets/svg/filter.svg

<svg width="30" height="30" viewBox="0 0 30 30" fill="none" xmlns="http://www.w3.org/2000/svg">
<path fill-rule="evenodd" clip-rule="evenodd" d="M18.3334 21.4913C18.3334 21.2108 18.4563 20.9418 18.6751 20.7434C18.8939 20.5451 19.1906 20.4336 19.5 20.4336H26.5C26.8095 20.4336 27.1062 20.5451 27.325 20.7434C27.5438 20.9418 27.6667 21.2108 27.6667 21.4913C27.6667 21.7718 27.5438 22.0408 27.325 22.2391C27.1062 22.4375 26.8095 22.5489 26.5 22.5489H19.5C19.1906 22.5489 18.8939 22.4375 18.6751 22.2391C18.4563 22.0408 18.3334 21.7718 18.3334 21.4913ZM9.66668 15.1455C9.66668 14.865 9.7896 14.596 10.0084 14.3977C10.2272 14.1993 10.5239 14.0879 10.8333 14.0879H27.1667C27.4761 14.0879 27.7729 14.1993 27.9917 14.3977C28.2105 14.596 28.3334 14.865 28.3334 15.1455C28.3334 15.426 28.2105 15.695 27.9917 15.8934C27.7729 16.0917 27.4761 16.2032 27.1667 16.2032H10.8333C10.5239 16.2032 10.2272 16.0917 10.0084 15.8934C9.7896 15.695 9.66668 15.426 9.66668 15.1455ZM0 8.79981C0 8.51931 0.122917 8.2503 0.341709 8.05196C0.560502 7.85362 0.857249 7.74219 1.16667 7.74219H26.8334C27.1428 7.74219 27.4395 7.85362 27.6583 8.05196C27.8771 8.2503 28 8.51931 28 8.79981C28 9.08031 27.8771 9.34932 27.6583 9.54766C27.4395 9.746 27.1428 9.85743 26.8334 9.85743H1.16667C0.857249 9.85743 0.560502 9.746 0.341709 9.54766C0.122917 9.34932 0 9.08031 0 8.79981Z" fill="#58595B"/>
</svg>

<svg xmlns="http://www.w3.org/2000/svg" width="30" height="30" fill="none" viewBox="0 0 30 30">
    <path fill="#58595B" fill-rule="evenodd" d="M18.333 21.491c0-.28.123-.55.342-.748.219-.198.516-.31.825-.31h7c.31 0 .606.112.825.31.219.199.342.468.342.748 0 .28-.123.55-.342.748-.219.198-.515.31-.825.31h-7c-.31 0-.606-.111-.825-.31-.219-.198-.342-.467-.342-.748zm-8.666-6.345c0-.281.123-.55.341-.748.22-.199.516-.31.825-.31h16.334c.31 0 .606.111.825.31.218.198.341.467.341.748 0 .28-.122.549-.341.747-.22.199-.516.31-.825.31H10.833c-.31 0-.606-.111-.825-.31-.218-.198-.341-.467-.341-.748zM0 8.8c0-.28.123-.55.342-.748.219-.198.515-.31.825-.31h25.666c.31 0 .607.112.825.31.22.198.342.467.342.748 0 .28-.123.55-.342.748-.219.198-.515.31-.825.31H1.167c-.31 0-.606-.112-.825-.31C.122 9.349 0 9.08 0 8.8z" clip-rule="evenodd"/>
    <path fill="#A7A9AC" d="M0 0v-1h-1v1h1zm30 0h1v-1h-1v1zm0 30v1h1v-1h-1zM0 30h-1v1h1v-1zM0 1h30v-2H0v2zm29-1v30h2V0h-2zm1 29H0v2h30v-2zM1 30V0h-2v30h2z"/>
</svg>
